X: 11096
T: SYLVIA'S BIRTHDAY
C: Bob McQuillen 5 Nov 95
B: Bob's Note Book 11 #96
%R: jig
Z: 2019 John Chambers <jc:trillian.mit.edu>
M: 6/8
L: 1/8
K: A
c \
| ecf edc | BAG A2F | EAF EAc | edc c2B |\
| Acf ecA | BAB cAF | EAc edc | BAB A2 :|
|: c \
| eaa aec | def f2e | cea fdf | ecA Bcd |\
| eag a2c | def ecA | aec def | ecA A2 :|
%%begintext align
%% Here is
%% a pipe tune especially for Sylvia Miskoe
%% on her 39th Birthday - with love
%% to you, Sylvia, from Bob
%%endtext

%%sep 1 1 500

%%sep 1 1 500

